X: 3735
T: Bird In The Bush, The
R: reel
M: 4/4
K: Gmajor
|:d2 eB dB B2|cBAB G2AG|EA A2 BG G2|(3BAG Bd g3e|
d2 eB dB B2|cBAB G3E|DEGA B3c|dBAc BG G2:|
|:(3Bcd ef g2fg|afdf gfed|(3Bcd ef g3a|agab g3a|
bg g2 agef|g3e dBAB|DEGA B3c|dBAc BG G2:|

